icons/flag-outline.svg

<svg xmlns="http://www.w3.org/2000/svg" width="24" height="24" viewBox="0 0 24 24">
  <path d="M4,21 C4,21.5522847 3.55228475,22 3,22 C2.48716416,22 2.06449284,21.6139598 2.00672773,21.1166211 L2,21 L2,3 C2,2.48716416 2.38604019,2.06449284 2.88337887,2.00672773 L3,2 L10.1715729,2 C10.9672223,2 11.7302841,2.31607052 12.2928932,2.87867966 L12.2928932,2.87867966 L13.1213203,3.70710678 C13.3088567,3.89464316 13.5632106,4 13.8284271,4 L13.8284271,4 L20.9596876,4 C21.7881147,4 22.4597428,4.67157288 22.4597428,5.5 C22.4597428,5.84060724 22.3437664,6.171073 22.1309908,6.43704257 L22.1309908,6.43704257 L19.28,9.999 L22.1309908,13.5629574 C22.6161605,14.1694195 22.5543021,15.0369569 22.0116513,15.5694487 L22.0116513,15.5694487 L21.8967301,15.6713032 C21.6307606,15.8840789 21.3002948,16 20.9596876,16 L20.9596876,16 L11.8284271,16 C11.0327777,16 10.2697159,15.6839295 9.70710678,15.1213203 L9.70710678,15.1213203 L8.87867966,14.2928932 C8.69114328,14.1053568 8.43678937,14 8.17157288,14 L8.17157288,14 L4,14 L4,21 Z M10.1715729,4 L4,4 L4,12 L8.17157288,12 C8.82798369,12 9.46221448,12.2151255 9.98000649,12.6063332 L10.148162,12.7432038 L10.2928932,12.8786797 L11.1213203,13.7071068 C11.3088567,13.8946432 11.5632106,14 11.8284271,14 L11.8284271,14 L19.919,14 L17.2191312,10.624695 C16.9535176,10.2926781 16.9293709,9.83360813 17.1466911,9.47849062 L17.1466911,9.47849062 L17.2191312,9.37530495 L19.919,6 L13.8284271,6 C13.0990818,6 12.3971192,5.73441296 11.851838,5.25679617 L11.851838,5.25679617 L11.7071068,5.12132034 L10.8786797,4.29289322 C10.6911433,4.10535684 10.4367894,4 10.1715729,4 L10.1715729,4 Z"/>
</svg>

<svg xmlns="http://www.w3.org/2000/svg" viewBox="0 0 24 24">
  <path d="M4 21a1 1 0 0 1-2 .12V3a1 1 0 0 1 .88-1h7.29a3 3 0 0 1 2.12.88l.83.83a1 1 0 0 0 .7.29h7.14a1.5 1.5 0 0 1 1.17 2.44L19.28 10l2.85 3.56c.49.6.42 1.48-.12 2l-.11.11c-.27.21-.6.33-.94.33h-9.13a3 3 0 0 1-2.12-.88l-.83-.83a1 1 0 0 0-.7-.29H4v7zm6.17-17H4v8h4.17a3 3 0 0 1 1.81.6l.17.14.14.14.83.83a1 1 0 0 0 .7.29h8.1l-2.7-3.38a1 1 0 0 1-.07-1.14l.07-.1L19.92 6h-6.1a3 3 0 0 1-1.97-.74l-.14-.14-.83-.83a1 1 0 0 0-.7-.29z"/>
</svg>
